svg/u1f43c.svg

<svg viewBox="0 0 128 128" xmlns="http://www.w3.org/2000/svg">
  <path d="M63.99,16.83c-11.4-0.29-20.55,4.65-20.55,4.65S31.82,4.11,15.42,16.41 c-16.89,12.67-0.99,30.83-0.99,30.83S2.91,61.36,3.88,79.34c1.04,19.28,11.26,42.02,61.38,41.18c50.12-0.84,58.82-22.74,58.71-41.74 c-0.11-18.3-8.73-29-8.73-29s15.63-17.03,2.53-30.41s-28.02,4.65-28.02,4.65S80.46,17.25,63.99,16.83z" fill="#4D4D4D"/>
  <path d="M63.47,20.51c-9.45,0-21.02,1.95-36.64,17.15S3.74,70.75,8.39,88.21s18.72,29.42,56.73,29 s50.64-11.66,54.76-30.97c1.54-7.22,0.98-19.73-5.35-31.53C106.23,39.22,87.57,20.51,63.47,20.51z" fill="#FFFFFF"/>
  <path d="M53.53,49.87c-7.77-4.74-15.86,0.28-21.96,8.54c-5.32,7.2-10.72,9.56-11.17,17.08 c-0.38,6.29,4.32,15.3,14.08,15.3c8.92,0,10.89-8.45,15.02-14.17C53.62,70.89,65.15,56.96,53.53,49.87z" fill="#4D4D4D"/>
  <path d="M72.49,51.56c-5.06,4.6-4.04,12.2-0.28,16.99s6.09,7.46,7.7,10.42c2.11,3.89,9.61,18.31,21.68,8.82 c12.29-9.67,3.03-21.47,0.19-24.4c-1.11-1.14-11.12-11.64-13.05-13.23C86.24,48.09,79.71,44.99,72.49,51.56z" fill="#4D4D4D"/>
  <path d="M93.6,67.04c0.32,4.99-1.41,9.29-5.82,9.67c-4.29,0.36-8.16-3.41-8.92-8.35 c-0.75-4.94,1.6-9.01,6.29-9.2C89.46,58.99,93.23,61.22,93.6,67.04z" fill="#040301"/>
  <path d="M47.05,73.14c-2.36,3.51-7.43,4.3-11.17,1.5c-2.63-1.97-3.22-7.63-0.84-11.73 c2.51-4.33,7.62-4.94,11.43-2.24C49.49,62.82,50.34,68.26,47.05,73.14z" fill="#040301"/>
  <path d="M81.31,63.48c-1.07,2.6-0.38,6.01,1.6,5.91c2.53-0.12,1.69-2.25,2.53-3.28 c0.84-1.03,2.35-3.19,0.75-4.41C84.18,60.15,81.97,61.88,81.31,63.48z" fill="#E0E0E0"/>
  <path d="M37.2,62.91c-1.77,2.8-1.39,5.24-0.38,6.1c1.55,1.31,3.43-0.52,4.65-2.77 c1.22-2.25,2.77-4.18,0.89-5.58C41.03,59.67,38.32,61.13,37.2,62.91z" fill="#E0E0E0"/>
  <path d="M63.67,81.4c-5.63,0.07-12.29,3.85-12.39,5.73c-0.09,1.88,2.82,4.04,4.79,5.54 c1.47,1.12,4.69,2.91,4.41,3.85c-0.28,0.94-2.45,1.99-4.79,2.25c-3.1,0.35-7.17-2.39-8.17-3.1c-1.2-0.84-3.94,0.35-2.67,2.82 c1.26,2.45,3.71,4.06,6.34,4.72c2.84,0.71,4.41,0.54,4.41,0.54s2.74,3.9,7.88,4.32c5.82,0.47,8.63-4.69,8.63-4.69 s3.53,0.55,5.82-0.28c3.1-1.13,4.29-3.12,5.07-4.69c0.9-1.83-0.33-4.42-3.28-2.53c-2.35,1.5-3.47,3.19-8.12,2.98 c-2.88-0.13-4.08-1.95-4.08-2.7s3.47-2.82,5.54-4.32c2.08-1.52,3.66-3.19,3.75-4.6C76.9,85.81,71.08,81.31,63.67,81.4z" fill="#030200"/>
  <path d="M63.99,99.4c0,0-1.36,1.71-1.92,2.09c-0.56,0.38-2.44,1.43-2.44,1.43s1.44,1.61,3.31,1.83 c3.59,0.42,5.07-1.62,5.07-1.62s-0.82-0.66-1.76-1.34C65.39,101.17,63.99,99.4,63.99,99.4z" fill="#FDA4A5"/>
</svg>

<svg viewBox="0 0 128 128" xmlns="http://www.w3.org/2000/svg">
  <defs/>
  <path d="M63.99,16.83 C52.59,16.54 43.44,21.48 43.44,21.48 C43.44,21.48 31.82,4.11 15.42,16.41 C-1.47,29.08 14.43,47.24 14.43,47.24 C14.43,47.24 2.91,61.36 3.88,79.34 C4.92,98.62 15.14,121.36 65.26,120.52 C115.38,119.68 124.08,97.78 123.97,78.78 C123.86,60.48 115.24,49.78 115.24,49.78 C115.24,49.78 130.87,32.75 117.77,19.37 C104.67,5.99 89.75,24.02 89.75,24.02 C89.75,24.02 80.46,17.25 63.99,16.83 Z" fill="#4D4D4D"/>
  <path d="M63.47,20.51 C54.02,20.51 42.45,22.46 26.83,37.66 C11.21,52.86 3.74,70.75 8.39,88.21 C13.04,105.67 27.11,117.63 65.12,117.21 C103.13,116.79 115.76,105.55 119.88,86.24 C121.42,79.02 120.86,66.51 114.53,54.71 C106.23,39.22 87.57,20.51 63.47,20.51 Z" fill="#FFFFFF"/>
  <path d="M53.53,49.87 C45.76,45.13 37.67,50.15 31.57,58.41 C26.25,65.61 20.85,67.97 20.4,75.49 C20.02,81.78 24.72,90.79 34.48,90.79 C43.4,90.79 45.37,82.34 49.5,76.62 C53.62,70.89 65.15,56.96 53.53,49.87 Z" fill="#4D4D4D"/>
  <path d="M72.49,51.56 C67.43,56.16 68.45,63.76 72.21,68.55 C75.97,73.34 78.3,76.01 79.91,78.97 C82.02,82.86 89.52,97.28 101.59,87.79 C113.88,78.12 104.62,66.32 101.78,63.39 C100.67,62.25 90.66,51.75 88.73,50.16 C86.24,48.09 79.71,44.99 72.49,51.56 Z" fill="#4D4D4D"/>
  <path d="M93.6,67.04 C93.92,72.03 92.19,76.33 87.78,76.71 C83.49,77.07 79.62,73.3 78.86,68.36 C78.11,63.42 80.46,59.35 85.15,59.16 C89.46,58.99 93.23,61.22 93.6,67.04 Z" fill="#040301"/>
  <path d="M47.05,73.14 C44.69,76.65 39.62,77.44 35.88,74.64 C33.25,72.67 32.66,67.01 35.04,62.91 C37.55,58.58 42.66,57.97 46.47,60.67 C49.49,62.82 50.34,68.26 47.05,73.14 Z" fill="#040301"/>
  <path d="M81.31,63.48 C80.24,66.08 80.93,69.49 82.91,69.39 C85.44,69.27 84.6,67.14 85.44,66.11 C86.28,65.08 87.79,62.92 86.19,61.7 C84.18,60.15 81.97,61.88 81.31,63.48 Z" fill="#E0E0E0"/>
  <path d="M37.2,62.91 C35.43,65.71 35.81,68.15 36.82,69.01 C38.37,70.32 40.25,68.49 41.47,66.24 C42.69,63.99 44.24,62.06 42.36,60.66 C41.03,59.67 38.32,61.13 37.2,62.91 Z" fill="#E0E0E0"/>
  <path d="M63.67,81.4 C58.04,81.47 51.38,85.25 51.28,87.13 C51.19,89.01 54.1,91.17 56.07,92.67 C57.54,93.79 60.76,95.58 60.48,96.52 C60.2,97.46 58.03,98.51 55.69,98.77 C52.59,99.12 48.52,96.38 47.52,95.67 C46.32,94.83 43.58,96.02 44.85,98.49 C46.11,100.94 48.56,102.55 51.19,103.21 C54.03,103.92 55.6,103.75 55.6,103.75 C55.6,103.75 58.34,107.65 63.48,108.07 C69.3,108.54 72.11,103.38 72.11,103.38 C72.11,103.38 75.64,103.93 77.93,103.1 C81.03,101.97 82.22,99.98 83,98.41 C83.9,96.58 82.67,93.99 79.72,95.88 C77.37,97.38 76.25,99.07 71.6,98.86 C68.72,98.73 67.52,96.91 67.52,96.16 C67.52,95.41 70.99,93.34 73.06,91.84 C75.14,90.32 76.72,88.65 76.81,87.24 C76.9,85.81 71.08,81.31 63.67,81.4 Z" fill="#030200"/>
  <path d="M63.99,99.4 C63.99,99.4 62.63,101.11 62.07,101.49 C61.51,101.87 59.63,102.92 59.63,102.92 C59.63,102.92 61.07,104.53 62.94,104.75 C66.53,105.17 68.01,103.13 68.01,103.13 C68.01,103.13 67.19,102.47 66.25,101.79 C65.39,101.17 63.99,99.4 63.99,99.4 Z" fill="#FDA4A5"/>
</svg>
